src/assets/icons/pul-icon-compass.svg

<!-- Generated by IcoMoon.io -->
<svg version="1.1" xmlns="http://www.w3.org/2000/svg" width="16" height="16" viewBox="0 0 16 16">
<title>compass</title>
<path d="M8 0c-4.411 0-8 3.589-8 8s3.589 8 8 8 8-3.589 8-8-3.589-8-8-8zM8 15.333c-4.043 0-7.333-3.289-7.333-7.333s3.29-7.333 7.333-7.333 7.333 3.29 7.333 7.333c0 4.044-3.29 7.333-7.333 7.333z"></path>
<path d="M11.873 3.692l-5.667 2.333c-0.016 0.007-0.026 0.021-0.041 0.029-0.023 0.015-0.045 0.028-0.064 0.047s-0.033 0.041-0.047 0.063c-0.009 0.015-0.023 0.025-0.029 0.041l-2.333 5.667c-0.051 0.125-0.023 0.267 0.073 0.363 0.063 0.063 0.149 0.097 0.235 0.097 0.043 0 0.086-0.007 0.127-0.025l5.667-2.333c0.016-0.006 0.026-0.021 0.041-0.029 0.023-0.014 0.045-0.028 0.064-0.047s0.033-0.041 0.047-0.064c0.009-0.015 0.023-0.025 0.029-0.041l2.333-5.667c0.051-0.125 0.023-0.267-0.073-0.363s-0.237-0.123-0.362-0.072zM4.613 11.388l1.838-4.465 2.626 2.625-4.464 1.839zM9.549 9.077l-2.626-2.626 4.465-1.838-1.839 4.464z"></path>
</svg>

<svg xmlns="http://www.w3.org/2000/svg" viewBox="0 0 16 16">
    <path d="M8 0C3.589 0 0 3.589 0 8s3.589 8 8 8 8-3.589 8-8-3.589-8-8-8zm0 15.333C3.957 15.333.667 12.044.667 8S3.957.667 8 .667 15.333 3.957 15.333 8c0 4.044-3.29 7.333-7.333 7.333z"/>
    <path d="M11.873 3.692L6.206 6.025c-.016.007-.026.021-.041.029-.023.015-.045.028-.064.047s-.033.041-.047.063c-.009.015-.023.025-.029.041l-2.333 5.667a.333.333 0 0 0 .435.435l5.667-2.333c.016-.006.026-.021.041-.029.023-.014.045-.028.064-.047s.033-.041.047-.064c.009-.015.023-.025.029-.041l2.333-5.667a.333.333 0 0 0-.435-.435zm-7.26 7.696l1.838-4.465 2.626 2.625-4.464 1.839zm4.936-2.311L6.923 6.451l4.465-1.838-1.839 4.464z"/>
</svg>
